!!!OTL: WENN MEIN PFEIFCHEN DAMPFT UND GLUEHT
!!!ARE: Europa, Mitteleuropa, Deutschland
!!!SCT: B0648
!!!YEM: Copyright 1995, estate of Helmut Schaffrath.
**kern
*ICvox
*Ivox
*M3/4
*k[f#]
*G:
=1
{4.d
8b
8g
8g
=2
8cc
8cc
4a
4r}
=3
{4.d
8b
8a
8g
=4
8f#
8a
4dd
4r}
=5
{4.b
8b
8b
8b
=6
16dd
16cc
16b
16cc
4a
4r}
=7
{8dd
8dd
8.ee
16cc
16cc
16a
16a
16f#
=8
4a
4g
4r}
=9
{8f#
8a
4.dd
8cc
=10
8b
16a
16b
4g
4r}
=11
{8f#
8a
4.dd
8cc
=12
8b
8a
4g
4r}
=13
{4.d
8b
8b
8b
=14
16dd
16cc
16b
16cc
4a
4r}
=15
{8.dd
16dd
8.ee
16cc
16cc
16a
16a
16f#
=16
4a
4g
4r}
==
!!!AGN: Moral -, Lob - Lied auf den Tabak
!!!ONB: ESAC (Essen Associative Code) Database: BOEHME
!!!AMT: simple triple
!!!AIN: vox
!!!EED: Helmut Schaffrath
!!!EEV: 1.0
*-
